Newaita-dark/apps/48/lmms.svg

<svg height="48pt" viewBox="0 0 48 48" width="48pt" xmlns="http://www.w3.org/2000/svg" xmlns:xlink="http://www.w3.org/1999/xlink"><linearGradient id="a"><stop offset="0" stop-opacity=".313726"/><stop offset=".222222" stop-opacity=".27451"/><stop offset="1" stop-opacity="0"/></linearGradient><radialGradient id="b" cx="450.908936" cy="189.579361" gradientTransform="matrix(.00000026 -.117199 -.210958 -.00000015 76.70755 95.392994)" gradientUnits="userSpaceOnUse" r="21.166656" xlink:href="#a"/><radialGradient id="c" cx="450.908936" cy="189.579361" gradientTransform="matrix(-.00000026 .117199 .210958 .00000015 -3.278662 -11.291223)" gradientUnits="userSpaceOnUse" r="21.166656" xlink:href="#a"/><radialGradient id="d" cx="450.908936" cy="189.579361" gradientTransform="matrix(-.00000026 -.117199 .210958 -.00000015 -3.278662 95.392994)" gradientUnits="userSpaceOnUse" r="21.166656" xlink:href="#a"/><radialGradient id="e" cx="450.908936" cy="189.579361" gradientTransform="matrix(.00000026 .117199 -.210958 .00000015 76.707547 -11.291224)" gradientUnits="userSpaceOnUse" r="21.166656" xlink:href="#a"/><linearGradient id="f"><stop offset="0" stop-opacity=".27451"/><stop offset="1" stop-opacity="0"/></linearGradient><linearGradient id="g" gradientTransform="matrix(.0200401 0 0 .093759 31.597748 20.158175)" gradientUnits="userSpaceOnUse" x1="255.323059" x2="255.323044" xlink:href="#f" y1="233.5" y2="254.666656"/><radialGradient id="h" cx="450.908936" cy="189.579361" gradientTransform="matrix(.00000026 -.117199 -.210958 -.00000015 50.908213 95.392994)" gradientUnits="userSpaceOnUse" r="21.166656" xlink:href="#a"/><radialGradient id="i" cx="450.908936" cy="189.579361" gradientTransform="matrix(-.00000026 .117199 .210958 .00000015 -29.078 -11.291223)" gradientUnits="userSpaceOnUse" r="21.166656" xlink:href="#a"/><radialGradient id="j" cx="450.908936" cy="189.579361" gradientTransform="matrix(-.00000026 -.117199 .210958 -.00000015 -29.078 95.392994)" gradientUnits="userSpaceOnUse" r="21.166656" xlink:href="#a"/><radialGradient id="k" cx="450.908936" cy="189.579361" gradientTransform="matrix(.00000026 .117199 -.210958 .00000015 50.90821 -11.291224)" gradientUnits="userSpaceOnUse" r="21.166656" xlink:href="#a"/><linearGradient id="l" gradientTransform="matrix(.0200401 0 0 .093759 5.798411 20.158175)" gradientUnits="userSpaceOnUse" x1="255.323059" x2="255.323044" xlink:href="#f" y1="233.5" y2="254.666656"/><linearGradient id="m" gradientUnits="userSpaceOnUse" x1="23.814816" x2="23.814816" y1="42.05096580616" y2="4.34417306195"><stop offset="0" stop-color="#66bb6a"/><stop offset="1" stop-color="#81c784"/></linearGradient><path d="m37.210938 42.050781h3.96875v-1.984375h-3.96875zm0 0" fill="url(#b)"/><path d="m36.21875 42.050781h-3.96875v1.984375h3.96875zm0 0" fill="url(#c)"/><path d="m36.21875 42.050781h-3.96875v-1.984375h3.96875zm0 0" fill="url(#d)"/><path d="m37.210938 42.050781h3.96875v1.984375h-3.96875zm0 0" fill="url(#e)"/><path d="m36.21875 41.554688h.992188v2.480468h-.992188zm0 0" fill="url(#g)"/><path d="m11.410156 42.050781h3.96875v-1.984375h-3.96875zm0 0" fill="url(#h)"/><path d="m10.417969 42.050781h-3.96875v1.984375h3.96875zm0 0" fill="url(#i)"/><path d="m10.417969 42.050781h-3.96875v-1.984375h3.96875zm0 0" fill="url(#j)"/><path d="m11.410156 42.050781h3.96875v1.984375h-3.96875zm0 0" fill="url(#k)"/><path d="m10.417969 41.554688h.992187v2.480468h-.992187zm0 0" fill="url(#l)"/><path d="m23.816406 4.542969c-.609375 0-1.1875.144531-1.699218.402343l-15.496094 5.808594c-1.449219.542969-2.632813 1.96875-2.652344 3.511719l.011719 22.824219c0 .695312.363281 1.335937.957031 1.695312l4.960938 2.976563c.625.375 1.40625.375 2.03125 0l4.964843-2.976563c.59375-.359375.957031-1 .957031-1.695312v-4.960938c0-.695312-.363281-1.335937-.957031-1.695312l-4.964843-2.976563c-.125-.078125-.261719-.136719-.402344-.183593l.128906-10.394532 12.175781-4.566406 12.179688 4.566406.128906 10.394532c-.140625.046874-.277344.105468-.402344.183593l-4.964843 2.976563c-.59375.359375-.957032 1-.957032 1.695312v4.960938c0 .695312.363282 1.335937.957032 1.695312l4.964843 2.976563c.625.375 1.40625.375 2.03125 0l4.960938-2.976563c.59375-.359375.957031-1 .957031-1.695312l.011719-22.824219c-.019531-1.542969-1.207031-2.96875-2.652344-3.511719l-15.496094-5.808594c-.511719-.257812-1.089843-.402343-1.699219-.402343-.003906 0-.011718 0-.019531 0-.003906 0-.011719 0-.015625 0zm0 0" fill="url(#m)"/><path d="m23.816406 4.542969c-.609375 0-1.1875.144531-1.699218.402343l-15.496094 5.808594c-1.449219.542969-2.632813 1.96875-2.652344 3.511719v.875c.027344-1.539063 1.210938-2.957031 2.652344-3.496094l15.496094-5.8125c.511718-.257812 1.089843-.402343 1.699218-.398437h.015625.019531c.609376-.003906 1.1875.140625 1.699219.398437l15.496094 5.8125c1.441406.539063 2.625 1.957031 2.652344 3.496094v-.875c-.019531-1.542969-1.207031-2.96875-2.652344-3.511719l-15.496094-5.808594c-.511719-.257812-1.089843-.402343-1.699219-.402343-.003906 0-.011718 0-.019531 0-.003906 0-.011719 0-.015625 0zm-12.277344 22.734375-.011718.882812c.140625.046875.277344.109375.402344.183594l4.964843 2.980469c.59375.355469.957031 1 .957031 1.691406v-.886719c0-.695312-.363281-1.335937-.957031-1.695312l-4.964843-2.976563c-.125-.074219-.253907-.132812-.390626-.179687zm24.589844 0c-.136718.046875-.269531.105468-.390625.179687l-4.964843 2.976563c-.59375.359375-.957032 1-.957032 1.695312v.886719c0-.691406.363282-1.335937.957032-1.691406l4.964843-2.980469c.125-.074219.261719-.136719.402344-.183594zm0 0" fill="#fff" fill-opacity=".392157"/><path d="m23.832031 11.460938-12.175781 4.566406-.128906 10.394531c.003906 0 .007812.003906.007812.003906l.121094-9.546875 12.175781-4.566406 12.179688 4.566406.121093 9.546875s.003907-.003906.007813-.003906l-.128906-10.394531zm-19.863281 2.792968v.011719l.011719 22.824219c0 .695312.363281 1.335937.957031 1.695312l4.960938 2.976563c.625.375 1.40625.375 2.03125 0l4.964843-2.976563c.59375-.359375.957031-1 .957031-1.695312v-.851563c0 .695313-.363281 1.335938-.957031 1.695313l-4.964843 2.976562c-.625.375-1.40625.375-2.03125 0l-4.960938-2.976562c-.59375-.359375-.957031-1-.957031-1.695313zm39.730469 0-.011719 21.984375c0 .695313-.363281 1.335938-.957031 1.695313l-4.960938 2.976562c-.625.375-1.40625.375-2.03125 0l-4.964843-2.976562c-.59375-.359375-.957032-1-.957032-1.695313v.851563c0 .695312.363282 1.335937.957032 1.695312l4.964843 2.976563c.625.375 1.40625.375 2.03125 0l4.960938-2.976563c.59375-.359375.957031-1 .957031-1.695312l.011719-22.824219c0-.003906 0-.007813 0-.011719zm0 0" fill-opacity=".235294"/><path d="m23.816406 4.402344c-.625 0-1.222656.148437-1.753906.414062l-15.492188 5.808594c-1.496093.5625-2.722656 2.023438-2.742187 3.640625l.007813 22.824219c.003906.742187.390624 1.433594 1.027343 1.8125l4.964844 2.976562c.667969.402344 1.503906.402344 2.175781 0l4.960938-2.976562c.636718-.378906 1.027344-1.070313 1.027344-1.8125v-4.960938c0-.742187-.390626-1.433594-1.027344-1.816406l-4.960938-2.976562c-.105468-.0625-.21875-.113282-.335937-.160157l.128906-10.199219 12.035156-4.515624 12.039063 4.515624.128906 10.199219c-.117188.046875-.230469.097657-.335938.160157l-4.960937 2.976562c-.636719.382812-1.027344 1.074219-1.027344 1.816406v4.960938c0 .742187.390625 1.433594 1.027344 1.8125l4.960937 2.976562c.667969.402344 1.507813.402344 2.175782 0l4.960937-2.976562c.640625-.378906 1.027344-1.070313 1.027344-1.8125l.011719-22.824219c-.019532-1.617187-1.246094-3.078125-2.742188-3.640625l-15.492187-5.808594c-.53125-.265625-1.128907-.414062-1.753907-.414062-.007812 0-.015624 0-.019531 0-.003906 0-.007812 0-.015625 0zm-.003906.28125h.019531.023438c.582031 0 1.136719.136718 1.632812.386718.003907.003907.007813.003907.011719.003907l15.496094 5.8125c1.394531.523437 2.542968 1.90625 2.5625 3.382812l-.011719 22.820313c0 .644531-.335937 1.242187-.890625 1.574218l-4.960938 2.976563c-.578124.347656-1.304687.347656-1.886718 0l-4.960938-2.976563c-.554687-.332031-.890625-.929687-.890625-1.574218v-4.960938c0-.644531.335938-1.242187.890625-1.574218l4.960938-2.976563c.117187-.070313.246094-.128906.375-.171875.058594-.019531.097656-.074219.097656-.136719l-.128906-10.394531c0-.058594-.039063-.109375-.089844-.128906l-12.179688-4.566406c-.03125-.011719-.066406-.011719-.097656 0l-12.179687 4.566406c-.054688.019531-.089844.070312-.089844.128906l-.128906 10.394531c0 .0625.039062.117188.097656.136719.128906.042969.253906.101562.375.171875l4.960937 2.976563c.554688.332031.890626.929687.890626 1.574218v4.960938c0 .644531-.335938 1.242187-.890626 1.574218l-4.960937 2.976563c-.582031.347656-1.308594.347656-1.886719 0l-4.960937-2.976563c-.554688-.332031-.890625-.929687-.890625-1.574218l-.011719-22.820313c.019531-1.476562 1.164063-2.859375 2.5625-3.382812l15.496094-5.8125c.003906 0 .007812 0 .011719-.003907.496093-.25 1.050781-.386718 1.632812-.386718zm0 0" fill="#212121"/></svg>

<?xml version="1.0" encoding="UTF-8"?>
<svg xmlns="http://www.w3.org/2000/svg" xmlns:xlink="http://www.w3.org/1999/xlink" width="48pt" height="48pt" viewBox="0 0 48 48" version="1.1">
<defs>
<radialGradient id="radial0" gradientUnits="userSpaceOnUse" cx="450.908936" cy="189.579361" fx="450.908936" fy="189.579361" r="21.166656" gradientTransform="matrix(0.000000261256,-0.117199,-0.210958,-0.000000152308,76.70755,95.392994)">
<stop offset="0" style="stop-color:rgb(0%,0%,0%);stop-opacity:0.313726;"/>
<stop offset="0.222222" style="stop-color:rgb(0%,0%,0%);stop-opacity:0.27451;"/>
<stop offset="1" style="stop-color:rgb(0%,0%,0%);stop-opacity:0;"/>
</radialGradient>
<radialGradient id="radial1" gradientUnits="userSpaceOnUse" cx="450.908936" cy="189.579361" fx="450.908936" fy="189.579361" r="21.166656" gradientTransform="matrix(-0.000000261256,0.117199,0.210958,0.000000152308,-3.278662,-11.291223)">
<stop offset="0" style="stop-color:rgb(0%,0%,0%);stop-opacity:0.313726;"/>
<stop offset="0.222222" style="stop-color:rgb(0%,0%,0%);stop-opacity:0.27451;"/>
<stop offset="1" style="stop-color:rgb(0%,0%,0%);stop-opacity:0;"/>
</radialGradient>
<radialGradient id="radial2" gradientUnits="userSpaceOnUse" cx="450.908936" cy="189.579361" fx="450.908936" fy="189.579361" r="21.166656" gradientTransform="matrix(-0.000000261256,-0.117199,0.210958,-0.000000152308,-3.278662,95.392994)">
<stop offset="0" style="stop-color:rgb(0%,0%,0%);stop-opacity:0.313726;"/>
<stop offset="0.222222" style="stop-color:rgb(0%,0%,0%);stop-opacity:0.27451;"/>
<stop offset="1" style="stop-color:rgb(0%,0%,0%);stop-opacity:0;"/>
</radialGradient>
<radialGradient id="radial3" gradientUnits="userSpaceOnUse" cx="450.908936" cy="189.579361" fx="450.908936" fy="189.579361" r="21.166656" gradientTransform="matrix(0.000000261256,0.117199,-0.210958,0.000000152308,76.707547,-11.291224)">
<stop offset="0" style="stop-color:rgb(0%,0%,0%);stop-opacity:0.313726;"/>
<stop offset="0.222222" style="stop-color:rgb(0%,0%,0%);stop-opacity:0.27451;"/>
<stop offset="1" style="stop-color:rgb(0%,0%,0%);stop-opacity:0;"/>
</radialGradient>
<linearGradient id="linear0" gradientUnits="userSpaceOnUse" x1="255.323059" y1="233.5" x2="255.323044" y2="254.666656" gradientTransform="matrix(0.0200401,0,0,0.093759,31.597748,20.158175)">
<stop offset="0" style="stop-color:rgb(0%,0%,0%);stop-opacity:0.27451;"/>
<stop offset="1" style="stop-color:rgb(0%,0%,0%);stop-opacity:0;"/>
</linearGradient>
<radialGradient id="radial4" gradientUnits="userSpaceOnUse" cx="450.908936" cy="189.579361" fx="450.908936" fy="189.579361" r="21.166656" gradientTransform="matrix(0.000000261256,-0.117199,-0.210958,-0.000000152308,50.908213,95.392994)">
<stop offset="0" style="stop-color:rgb(0%,0%,0%);stop-opacity:0.313726;"/>
<stop offset="0.222222" style="stop-color:rgb(0%,0%,0%);stop-opacity:0.27451;"/>
<stop offset="1" style="stop-color:rgb(0%,0%,0%);stop-opacity:0;"/>
</radialGradient>
<radialGradient id="radial5" gradientUnits="userSpaceOnUse" cx="450.908936" cy="189.579361" fx="450.908936" fy="189.579361" r="21.166656" gradientTransform="matrix(-0.000000261256,0.117199,0.210958,0.000000152308,-29.078,-11.291223)">
<stop offset="0" style="stop-color:rgb(0%,0%,0%);stop-opacity:0.313726;"/>
<stop offset="0.222222" style="stop-color:rgb(0%,0%,0%);stop-opacity:0.27451;"/>
<stop offset="1" style="stop-color:rgb(0%,0%,0%);stop-opacity:0;"/>
</radialGradient>
<radialGradient id="radial6" gradientUnits="userSpaceOnUse" cx="450.908936" cy="189.579361" fx="450.908936" fy="189.579361" r="21.166656" gradientTransform="matrix(-0.000000261256,-0.117199,0.210958,-0.000000152308,-29.078,95.392994)">
<stop offset="0" style="stop-color:rgb(0%,0%,0%);stop-opacity:0.313726;"/>
<stop offset="0.222222" style="stop-color:rgb(0%,0%,0%);stop-opacity:0.27451;"/>
<stop offset="1" style="stop-color:rgb(0%,0%,0%);stop-opacity:0;"/>
</radialGradient>
<radialGradient id="radial7" gradientUnits="userSpaceOnUse" cx="450.908936" cy="189.579361" fx="450.908936" fy="189.579361" r="21.166656" gradientTransform="matrix(0.000000261256,0.117199,-0.210958,0.000000152308,50.90821,-11.291224)">
<stop offset="0" style="stop-color:rgb(0%,0%,0%);stop-opacity:0.313726;"/>
<stop offset="0.222222" style="stop-color:rgb(0%,0%,0%);stop-opacity:0.27451;"/>
<stop offset="1" style="stop-color:rgb(0%,0%,0%);stop-opacity:0;"/>
</radialGradient>
<linearGradient id="linear1" gradientUnits="userSpaceOnUse" x1="255.323059" y1="233.5" x2="255.323044" y2="254.666656" gradientTransform="matrix(0.0200401,0,0,0.093759,5.798411,20.158175)">
<stop offset="0" style="stop-color:rgb(0%,0%,0%);stop-opacity:0.27451;"/>
<stop offset="1" style="stop-color:rgb(0%,0%,0%);stop-opacity:0;"/>
</linearGradient>
<linearGradient id="linear2" gradientUnits="userSpaceOnUse" x1="960" y1="1695.118164" x2="960" y2="175.118134" gradientTransform="matrix(0.0248071,0,0,0.0248071,0,0.00000000000000282)">
<stop offset="0" style="stop-color:rgb(40.000001%,73.333335%,41.568628%);stop-opacity:1;"/>
<stop offset="1" style="stop-color:rgb(50.588238%,78.039217%,51.764709%);stop-opacity:1;"/>
</linearGradient>
</defs>
<g id="surface1">
<path style=" stroke:none;fill-rule:nonzero;fill:url(#radial0);" d="M 37.210938 42.050781 L 41.179688 42.050781 L 41.179688 40.066406 L 37.210938 40.066406 Z M 37.210938 42.050781 "/>
<path style=" stroke:none;fill-rule:nonzero;fill:url(#radial1);" d="M 36.21875 42.050781 L 32.25 42.050781 L 32.25 44.035156 L 36.21875 44.035156 Z M 36.21875 42.050781 "/>
<path style=" stroke:none;fill-rule:nonzero;fill:url(#radial2);" d="M 36.21875 42.050781 L 32.25 42.050781 L 32.25 40.066406 L 36.21875 40.066406 Z M 36.21875 42.050781 "/>
<path style=" stroke:none;fill-rule:nonzero;fill:url(#radial3);" d="M 37.210938 42.050781 L 41.179688 42.050781 L 41.179688 44.035156 L 37.210938 44.035156 Z M 37.210938 42.050781 "/>
<path style=" stroke:none;fill-rule:nonzero;fill:url(#linear0);" d="M 36.21875 41.554688 L 37.210938 41.554688 L 37.210938 44.035156 L 36.21875 44.035156 Z M 36.21875 41.554688 "/>
<path style=" stroke:none;fill-rule:nonzero;fill:url(#radial4);" d="M 11.410156 42.050781 L 15.378906 42.050781 L 15.378906 40.066406 L 11.410156 40.066406 Z M 11.410156 42.050781 "/>
<path style=" stroke:none;fill-rule:nonzero;fill:url(#radial5);" d="M 10.417969 42.050781 L 6.449219 42.050781 L 6.449219 44.035156 L 10.417969 44.035156 Z M 10.417969 42.050781 "/>
<path style=" stroke:none;fill-rule:nonzero;fill:url(#radial6);" d="M 10.417969 42.050781 L 6.449219 42.050781 L 6.449219 40.066406 L 10.417969 40.066406 Z M 10.417969 42.050781 "/>
<path style=" stroke:none;fill-rule:nonzero;fill:url(#radial7);" d="M 11.410156 42.050781 L 15.378906 42.050781 L 15.378906 44.035156 L 11.410156 44.035156 Z M 11.410156 42.050781 "/>
<path style=" stroke:none;fill-rule:nonzero;fill:url(#linear1);" d="M 10.417969 41.554688 L 11.410156 41.554688 L 11.410156 44.035156 L 10.417969 44.035156 Z M 10.417969 41.554688 "/>
<path style=" stroke:none;fill-rule:nonzero;fill:url(#linear2);" d="M 23.816406 4.542969 C 23.207031 4.542969 22.628906 4.6875 22.117188 4.945312 L 6.621094 10.753906 C 5.171875 11.296875 3.988281 12.722656 3.96875 14.265625 L 3.980469 37.089844 C 3.980469 37.785156 4.34375 38.425781 4.9375 38.785156 L 9.898438 41.761719 C 10.523438 42.136719 11.304688 42.136719 11.929688 41.761719 L 16.894531 38.785156 C 17.488281 38.425781 17.851562 37.785156 17.851562 37.089844 L 17.851562 32.128906 C 17.851562 31.433594 17.488281 30.792969 16.894531 30.433594 L 11.929688 27.457031 C 11.804688 27.378906 11.667969 27.320312 11.527344 27.273438 L 11.65625 16.878906 L 23.832031 12.3125 L 36.011719 16.878906 L 36.140625 27.273438 C 36 27.320312 35.863281 27.378906 35.738281 27.457031 L 30.773438 30.433594 C 30.179688 30.792969 29.816406 31.433594 29.816406 32.128906 L 29.816406 37.089844 C 29.816406 37.785156 30.179688 38.425781 30.773438 38.785156 L 35.738281 41.761719 C 36.363281 42.136719 37.144531 42.136719 37.769531 41.761719 L 42.730469 38.785156 C 43.324219 38.425781 43.6875 37.785156 43.6875 37.089844 L 43.699219 14.265625 C 43.679688 12.722656 42.492188 11.296875 41.046875 10.753906 L 25.550781 4.945312 C 25.039062 4.6875 24.460938 4.542969 23.851562 4.542969 C 23.847656 4.542969 23.839844 4.542969 23.832031 4.542969 C 23.828125 4.542969 23.820312 4.542969 23.816406 4.542969 Z M 23.816406 4.542969 "/>
<path style=" stroke:none;fill-rule:nonzero;fill:rgb(100%,100%,100%);fill-opacity:0.392157;" d="M 23.816406 4.542969 C 23.207031 4.542969 22.628906 4.6875 22.117188 4.945312 L 6.621094 10.753906 C 5.171875 11.296875 3.988281 12.722656 3.96875 14.265625 L 3.96875 15.140625 C 3.996094 13.601562 5.179688 12.183594 6.621094 11.644531 L 22.117188 5.832031 C 22.628906 5.574219 23.207031 5.429688 23.816406 5.433594 C 23.820312 5.433594 23.828125 5.433594 23.832031 5.433594 C 23.839844 5.433594 23.847656 5.433594 23.851562 5.433594 C 24.460938 5.429688 25.039062 5.574219 25.550781 5.832031 L 41.046875 11.644531 C 42.488281 12.183594 43.671875 13.601562 43.699219 15.140625 L 43.699219 14.265625 C 43.679688 12.722656 42.492188 11.296875 41.046875 10.753906 L 25.550781 4.945312 C 25.039062 4.6875 24.460938 4.542969 23.851562 4.542969 C 23.847656 4.542969 23.839844 4.542969 23.832031 4.542969 C 23.828125 4.542969 23.820312 4.542969 23.816406 4.542969 Z M 11.539062 27.277344 L 11.527344 28.160156 C 11.667969 28.207031 11.804688 28.269531 11.929688 28.34375 L 16.894531 31.324219 C 17.488281 31.679688 17.851562 32.324219 17.851562 33.015625 L 17.851562 32.128906 C 17.851562 31.433594 17.488281 30.792969 16.894531 30.433594 L 11.929688 27.457031 C 11.804688 27.382812 11.675781 27.324219 11.539062 27.277344 Z M 36.128906 27.277344 C 35.992188 27.324219 35.859375 27.382812 35.738281 27.457031 L 30.773438 30.433594 C 30.179688 30.792969 29.816406 31.433594 29.816406 32.128906 L 29.816406 33.015625 C 29.816406 32.324219 30.179688 31.679688 30.773438 31.324219 L 35.738281 28.34375 C 35.863281 28.269531 36 28.207031 36.140625 28.160156 Z M 36.128906 27.277344 "/>
<path style=" stroke:none;fill-rule:nonzero;fill:rgb(0%,0%,0%);fill-opacity:0.235294;" d="M 23.832031 11.460938 L 11.65625 16.027344 L 11.527344 26.421875 C 11.53125 26.421875 11.535156 26.425781 11.535156 26.425781 L 11.65625 16.878906 L 23.832031 12.3125 L 36.011719 16.878906 L 36.132812 26.425781 C 36.132812 26.425781 36.136719 26.421875 36.140625 26.421875 L 36.011719 16.027344 Z M 3.96875 14.253906 C 3.96875 14.257812 3.96875 14.261719 3.96875 14.265625 L 3.980469 37.089844 C 3.980469 37.785156 4.34375 38.425781 4.9375 38.785156 L 9.898438 41.761719 C 10.523438 42.136719 11.304688 42.136719 11.929688 41.761719 L 16.894531 38.785156 C 17.488281 38.425781 17.851562 37.785156 17.851562 37.089844 L 17.851562 36.238281 C 17.851562 36.933594 17.488281 37.574219 16.894531 37.933594 L 11.929688 40.910156 C 11.304688 41.285156 10.523438 41.285156 9.898438 40.910156 L 4.9375 37.933594 C 4.34375 37.574219 3.980469 36.933594 3.980469 36.238281 Z M 43.699219 14.253906 L 43.6875 36.238281 C 43.6875 36.933594 43.324219 37.574219 42.730469 37.933594 L 37.769531 40.910156 C 37.144531 41.285156 36.363281 41.285156 35.738281 40.910156 L 30.773438 37.933594 C 30.179688 37.574219 29.816406 36.933594 29.816406 36.238281 L 29.816406 37.089844 C 29.816406 37.785156 30.179688 38.425781 30.773438 38.785156 L 35.738281 41.761719 C 36.363281 42.136719 37.144531 42.136719 37.769531 41.761719 L 42.730469 38.785156 C 43.324219 38.425781 43.6875 37.785156 43.6875 37.089844 L 43.699219 14.265625 C 43.699219 14.261719 43.699219 14.257812 43.699219 14.253906 Z M 43.699219 14.253906 "/>
<path style=" stroke:none;fill-rule:nonzero;fill:rgb(12.941177%,12.941177%,12.941177%);fill-opacity:1;" d="M 23.816406 4.402344 C 23.191406 4.402344 22.59375 4.550781 22.0625 4.816406 L 6.570312 10.625 C 5.074219 11.1875 3.847656 12.648438 3.828125 14.265625 L 3.835938 37.089844 C 3.839844 37.832031 4.226562 38.523438 4.863281 38.902344 L 9.828125 41.878906 C 10.496094 42.28125 11.332031 42.28125 12.003906 41.878906 L 16.964844 38.902344 C 17.601562 38.523438 17.992188 37.832031 17.992188 37.089844 L 17.992188 32.128906 C 17.992188 31.386719 17.601562 30.695312 16.964844 30.3125 L 12.003906 27.335938 C 11.898438 27.273438 11.785156 27.222656 11.667969 27.175781 L 11.796875 16.976562 L 23.832031 12.460938 L 35.871094 16.976562 L 36 27.175781 C 35.882812 27.222656 35.769531 27.273438 35.664062 27.335938 L 30.703125 30.3125 C 30.066406 30.695312 29.675781 31.386719 29.675781 32.128906 L 29.675781 37.089844 C 29.675781 37.832031 30.066406 38.523438 30.703125 38.902344 L 35.664062 41.878906 C 36.332031 42.28125 37.171875 42.28125 37.839844 41.878906 L 42.800781 38.902344 C 43.441406 38.523438 43.828125 37.832031 43.828125 37.089844 L 43.839844 14.265625 C 43.820312 12.648438 42.59375 11.1875 41.097656 10.625 L 25.605469 4.816406 C 25.074219 4.550781 24.476562 4.402344 23.851562 4.402344 C 23.84375 4.402344 23.835938 4.402344 23.832031 4.402344 C 23.828125 4.402344 23.824219 4.402344 23.816406 4.402344 Z M 23.8125 4.683594 C 23.816406 4.683594 23.824219 4.683594 23.832031 4.683594 C 23.84375 4.683594 23.851562 4.683594 23.855469 4.683594 C 24.4375 4.683594 24.992188 4.820312 25.488281 5.070312 C 25.492188 5.074219 25.496094 5.074219 25.5 5.074219 L 40.996094 10.886719 C 42.390625 11.410156 43.539062 12.792969 43.558594 14.269531 L 43.546875 37.089844 C 43.546875 37.734375 43.210938 38.332031 42.65625 38.664062 L 37.695312 41.640625 C 37.117188 41.988281 36.390625 41.988281 35.808594 41.640625 L 30.847656 38.664062 C 30.292969 38.332031 29.957031 37.734375 29.957031 37.089844 L 29.957031 32.128906 C 29.957031 31.484375 30.292969 30.886719 30.847656 30.554688 L 35.808594 27.578125 C 35.925781 27.507812 36.054688 27.449219 36.183594 27.40625 C 36.242188 27.386719 36.28125 27.332031 36.28125 27.269531 L 36.152344 16.875 C 36.152344 16.816406 36.113281 16.765625 36.0625 16.746094 L 23.882812 12.179688 C 23.851562 12.167969 23.816406 12.167969 23.785156 12.179688 L 11.605469 16.746094 C 11.550781 16.765625 11.515625 16.816406 11.515625 16.875 L 11.386719 27.269531 C 11.386719 27.332031 11.425781 27.386719 11.484375 27.40625 C 11.613281 27.449219 11.738281 27.507812 11.859375 27.578125 L 16.820312 30.554688 C 17.375 30.886719 17.710938 31.484375 17.710938 32.128906 L 17.710938 37.089844 C 17.710938 37.734375 17.375 38.332031 16.820312 38.664062 L 11.859375 41.640625 C 11.277344 41.988281 10.550781 41.988281 9.972656 41.640625 L 5.011719 38.664062 C 4.457031 38.332031 4.121094 37.734375 4.121094 37.089844 L 4.109375 14.269531 C 4.128906 12.792969 5.273438 11.410156 6.671875 10.886719 L 22.167969 5.074219 C 22.171875 5.074219 22.175781 5.074219 22.179688 5.070312 C 22.675781 4.820312 23.230469 4.683594 23.8125 4.683594 Z M 23.8125 4.683594 "/>
</g>
</svg>
